storage/app/icons/tabler/filled/circle-number-4.svg

<!--
version: "2.4"
unicode: "f733"
-->
<svg
  xmlns="http://www.w3.org/2000/svg"
  width="24"
  height="24"
  viewBox="0 0 24 24"
  fill="currentColor"
>
  <path d="M12 2c5.523 0 10 4.477 10 10s-4.477 10 -10 10s-10 -4.477 -10 -10s4.477 -10 10 -10zm2 5a1 1 0 0 0 -.993 .883l-.007 .117v3h-2v-3l-.007 -.117a1 1 0 0 0 -1.986 0l-.007 .117v3l.005 .15a2 2 0 0 0 1.838 1.844l.157 .006h2v3l.007 .117a1 1 0 0 0 1.986 0l.007 -.117v-8l-.007 -.117a1 1 0 0 0 -.993 -.883z" />
</svg>

<svg xmlns="http://www.w3.org/2000/svg" width="24" height="24" fill="currentColor" viewBox="0 0 24 24"><path d="M12 2c5.523 0 10 4.477 10 10s-4.477 10-10 10S2 17.523 2 12 6.477 2 12 2m2 5a1 1 0 0 0-.993.883L13 8v3h-2V8l-.007-.117a1 1 0 0 0-1.986 0L9 8v3l.005.15a2 2 0 0 0 1.838 1.844L11 13h2v3l.007.117a1 1 0 0 0 1.986 0L15 16V8l-.007-.117A1 1 0 0 0 14 7"/></svg>
